svg/sport/whistle_line.svg

<svg xmlns="http://www.w3.org/2000/svg" width="24" height="24" viewBox="0 0 24 24"><g fill="none" fill-rule="evenodd"><path d="M24,0 L24,24 L0,24 L0,0 L24,0 Z M12.5935,23.2578 L12.5819,23.2595 L12.5109,23.295 L12.4919,23.2987 L12.4767,23.295 L12.4057,23.2595 C12.3958,23.2564 12.387,23.259 12.3821,23.2649 L12.378,23.2758 L12.3609,23.7031 L12.3659,23.7235 L12.3769,23.7357 L12.4805,23.8097 L12.4953,23.8136 L12.5071,23.8097 L12.6107,23.7357 L12.6233,23.7197 L12.6267,23.7031 L12.6096,23.2758 C12.6076,23.2657 12.601,23.2593 12.5935,23.2578 Z M12.8584,23.1453 L12.8445,23.1473 L12.6598,23.2397 L12.6499,23.2499 L12.6472,23.2611 L12.6651,23.6906 L12.6699,23.7034 L12.6784,23.7105 L12.8793,23.8032 C12.8914,23.8069 12.9022,23.803 12.9078,23.7952 L12.9118,23.7812 L12.8777,23.1665 C12.8753,23.1546 12.8674,23.147 12.8584,23.1453 Z M12.143,23.1473 C12.1332,23.1424 12.1222,23.1453 12.1156,23.1526 L12.1099,23.1665 L12.0758,23.7812 C12.0751,23.7927 12.0828,23.8019 12.0926,23.8046 L12.1083,23.8032 L12.3092,23.7105 L12.3186,23.7024 L12.3225,23.6906 L12.3404,23.2611 L12.3372,23.2485 L12.3278,23.2397 L12.143,23.1473 Z"/><path fill="#09244B" d="M2.63775,4.92852 C3.61406,3.95221 5.19697,3.95221 6.17328,4.92852 C6.44291,5.19815 6.63807,5.51404 6.75878,5.85064 C9.194867,4.87927533 12.066349,5.3305743 14.0978892,7.2045369 L14.305,7.40347 L22.0831,15.1816 C22.4436538,15.5421538 22.4713888,16.1093349 22.1663047,16.5016776 L22.0831,16.5959 L19.9618,18.7172 C19.6511636,19.0278364 19.178957,19.0961587 18.797096,18.899327 L18.6855,18.8323 L15.1022,16.3515 C14.8688,16.6863 14.603,17.005 14.305,17.303 C11.5713,20.0366 7.13915,20.0366 4.40548,17.303 C2.13321,15.0307 1.74969,11.5849 3.2549,8.91652 C3.0327,8.80129 2.82417,8.65047 2.63775,8.46406 C1.66144,7.48775 1.66144,5.90483 2.63775,4.92852 Z M5.81969,8.81769 C3.86707,10.7703 3.86707,13.9361 5.81969,15.8888 C7.77231,17.8414 10.9381,17.8414 12.8908,15.8888 C13.3112,15.4683 13.64,14.9933 13.8786,14.4876 C14.004,14.2218 14.2399,14.0246 14.5238,13.9484 C14.8076,13.8723 15.1106,13.9248 15.3522,14.0921 L19.1377,16.7128 L19.9618,15.8888 L12.8908,8.81769 C10.9381,6.86506 7.77231,6.86506 5.81969,8.81769 Z M11.4765,10.2323 C12.6481,11.4038 12.6481,13.3033 11.4765,14.4749 C10.305,15.6465 8.40548,15.6465 7.2339,14.4749 C6.06233,13.3033 6.06233,11.4038 7.2339,10.2323 C8.40548,9.0607 10.305,9.0607 11.4765,10.2323 Z M8.64812,11.6465 C8.25759,12.037 8.25759,12.6702 8.64812,13.0607 C9.03864,13.4512 9.67181,13.4512 10.0623,13.0607 C10.4529,12.6702 10.4529,12.037 10.0623,11.6465 C9.67181,11.256 9.03864,11.256 8.64812,11.6465 Z M4.75907,6.34274 C4.56381,6.14747 4.24723,6.14747 4.05196,6.34274 C3.8567,6.538 3.8567,6.85458 4.05196,7.04984 C4.24723,7.2451 4.56381,7.2451 4.75907,7.04984 C4.95433,6.85458 4.95433,6.538 4.75907,6.34274 Z"/></g></svg>

<svg xmlns="http://www.w3.org/2000/svg" width="24" height="24"><g fill="none" fill-rule="evenodd"><path d="M24 0v24H0V0zM12.594 23.258l-.012.002-.071.035-.02.004-.014-.004-.071-.036c-.01-.003-.019 0-.024.006l-.004.01-.017.428.005.02.01.013.104.074.015.004.012-.004.104-.074.012-.016.004-.017-.017-.427c-.002-.01-.009-.017-.016-.018m.264-.113-.014.002-.184.093-.01.01-.003.011.018.43.005.012.008.008.201.092c.012.004.023 0 .029-.008l.004-.014-.034-.614c-.003-.012-.01-.02-.02-.022m-.715.002a.023.023 0 0 0-.027.006l-.006.014-.034.614c0 .012.007.02.017.024l.015-.002.201-.093.01-.008.003-.011.018-.43-.003-.012-.01-.01z"/><path fill="#09244B" d="M2.638 4.929a2.5 2.5 0 0 1 4.12.922 7.003 7.003 0 0 1 7.34 1.354l.207.198 7.778 7.779a1 1 0 0 1 .083 1.32l-.083.094-2.121 2.121a1 1 0 0 1-1.165.182l-.111-.067-3.584-2.48A7 7 0 0 1 3.255 8.917a2.5 2.5 0 0 1-.617-3.988M5.82 8.818a5 5 0 1 0 8.059 5.67 1 1 0 0 1 1.473-.396l3.786 2.62.824-.823-7.071-7.071a5 5 0 0 0-7.071 0m5.656 1.414a3 3 0 1 1-4.242 4.243 3 3 0 0 1 4.243-4.243m-2.828 1.415a1 1 0 1 0 1.414 1.414 1 1 0 0 0-1.414-1.415M4.76 6.342a.5.5 0 1 0-.707.707.5.5 0 0 0 .707-.707"/></g></svg>
